packages/ui-solid/icons/forward_28.svg

<svg width="28" height="28" viewBox="0 0 28 28" fill="none" xmlns="http://www.w3.org/2000/svg">
<path fill-rule="evenodd" clip-rule="evenodd" d="M14.3411 4.2612C13.9574 4.6501 13.9615 5.27646 14.3504 5.66024L20.3163 11.5476H15.6389C13.3988 11.5476 11.6287 11.5476 10.23 11.7139C8.79565 11.8845 7.62279 12.242 6.6468 13.0503C6.33204 13.311 6.04242 13.6006 5.78174 13.9154C4.97342 14.8914 4.61596 16.0642 4.44534 17.4986C4.27897 18.8973 4.27898 20.6673 4.279 22.9075V22.9728C4.279 23.5191 4.72191 23.962 5.26828 23.962C5.81465 23.962 6.25757 23.5191 6.25757 22.9728C6.25757 20.6529 6.25921 19.0005 6.41006 17.7323C6.55829 16.4862 6.83851 15.7413 7.30556 15.1774C7.48735 14.9579 7.68933 14.7559 7.90883 14.5741C8.47275 14.1071 9.21759 13.8269 10.4637 13.6787C11.7319 13.5278 13.3843 13.5262 15.7042 13.5262H20.3163L15.0488 18.7243C14.6599 19.1081 14.6557 19.7345 15.0395 20.1234C15.4233 20.5123 16.0496 20.5164 16.4385 20.1326L23.4221 13.241C23.6105 13.0551 23.7165 12.8015 23.7165 12.5369C23.7165 12.2722 23.6105 12.0186 23.4221 11.8327L15.7402 4.25193C15.3513 3.86816 14.7249 3.87231 14.3411 4.2612Z" fill="#007AFF"/>
</svg>

<svg xmlns="http://www.w3.org/2000/svg" width="28" height="28" fill="none"><path fill="currentColor" fill-rule="evenodd" d="M14.341 4.261a.99.99 0 0 0 .01 1.4l5.965 5.887H15.64c-2.24 0-4.01 0-5.409.166-1.434.17-2.607.528-3.583 1.336q-.474.392-.865.865c-.809.976-1.166 2.15-1.337 3.584-.166 1.398-.166 3.168-.166 5.409v.065a.99.99 0 0 0 1.979 0c0-2.32.001-3.972.152-5.24.148-1.247.429-1.992.896-2.556a4.6 4.6 0 0 1 .603-.603c.564-.467 1.309-.747 2.555-.895 1.268-.151 2.92-.153 5.24-.153h4.612l-5.267 5.198a.99.99 0 0 0 1.39 1.409l6.983-6.892a.99.99 0 0 0 0-1.408L15.74 4.252a.99.99 0 0 0-1.399.01" clip-rule="evenodd"/></svg>
